X: 103
M:4/4
L:1/8
K:C
ECCC CEGc|cGEG cGEG|f2 fe fagf|1edcB c2 GF:|2edcB c2 d2|
|:eccc ecgc|efga gedc|BGGA BGBG|Bcde f2 f2|
eccc ecgc|efga gedc|f2 fe fagf|1edcB c/2d/2c/2B/2 cd:|2edcB cAGF||

